!!!!SEGMENT: pl-kk--kk-i-11--010_anonim--nigra-sum-sed-formosa.krn
!!!cenid: 16xx:1249
!!!COM: Anonim
!!!COM-rismid: pe30004985
!!!CDT:
!!!CNT:
!!!OTL: Nigra sum sed formosa
!!!PDT:
!!!AGN: Sacred
!!!SMS-siglum: PL-Kk
!!!SMS-shelfmark: Kk.I.11
!!!SMS-shelfwork: 010 W
!!!SMS-variant:
!!!SMS-altvar:
!!!NIFC-rismid: 1001154160
!!!URL-scan: http://repozytorium.nifc.pl/skany/pl-kk-nut--i-11
!!!ONB-nifc: UWAGA: S (skan 0019-0020), B (0020-0021). Następny utwór: Cantare amantis es
!!!key:
**kern	**text	**kern	**text
*part2	*part2	*part1	*part1
*staff2	*staff2	*staff1	*staff1
*Iempty	*	*Ivox	*
*I"Baſſus	*	*I"[Cantus]	*
*I'B	*	*I'S.	*
*clefF4	*	*clefC1	*
*k[b-]	*	*k[b-]	*
*g:	*	*g:	*
*M2/1	*	*M2/1	*
*met(c|)	*	*met(c|)	*
=1-	=1-	=1-	=1-
!!LO:TX:t=P:problem:utwór bardzo problematyczny, spartowanie wymagało wielu korekt
00r	.	00r	.
=2-	=2-	=2-	=2-
.	.	.	.
=3-	=3-	=3-	=3-
00r	.	00r	.
=4-	=4-	=4-	=4-
.	.	.	.
=5-	=5-	=5-	=5-
00r	.	0ryy	.
=6-	=6-	=6-	=6-
.	.	0ryy	.
=7-	=7-	=7-	=7-
2r	.	1r	.
1G	Ni-	.	.
.	.	1.dd	Ni-
2G	-gra	.	.
=8-	=8-	=8-	=8-
2F	ſu(m)	.	.
2D/	ſed	2dd	-gra
1F	for-	2cc	ſum
.	.	2a	ſed
=9-	=9-	=9-	=9-
1E	-mo-	1cc	for-
1D	-ſa	1b-	-mo-
=10-	=10-	=10-	=10-
1r	.	1a	-ſa
1.G	ſed	1r	.
=11-	=11-	=11-	=11-
.	.	1.a	ſed
4F	.	.	.
4E	.	.	.
!LO:LB:g=original	!	!	!
2F	.	.	.
2F	for-	4g/	.
.	.	4f	.
=12-	=12-	=12-	=12-
1E	-mo-	2g/	.
.	.	2g/	for-
1D	-ſa	1a	-mo-
=13-	=13-	=13-	=13-
2r	.	1d	-ſa
*	*ij	*	*
1D	ſed	.	.
.	.	2r	.
*	*	*	*ij
2C	for-	1a	ſed
=14-	=14-	=14-	=14-
*lig	*	*	*
1BB-	-mo-	.	.
.	.	2g	for-
1AA	.	1a	-mo-
*Xlig	*	*	*
=15-	=15-	=15-	=15-
2D/	-ſa	2f	-ſa
*	*Xij	*	*Xij
1GG	fi-	1b-	Fi-
2GG	-li-	2b-	-li-
=16-	=16-	=16-	=16-
2D	-a	2a	-a
!	!	!LO:SIC:v:t=custos a	!
2E	Je-	2g/	Je-
!	!	!LO:LB:g=original	!
2.D/	-ru-	2.a	-ru-
4D/	-ſa-	4a	-ſa-
=17-	=17-	=17-	=17-
0GG	-lem	2g/	-lem
*	*	*	*ij
.	.	1b-	Fi-
.	.	2b-	-li-
=18-	=18-	=18-	=18-
0r	.	2a	-ia
.	.	2g/	Je-
.	.	2g/	-ru-
.	.	2f	-ſa-
=19-	=19-	=19-	=19-
*lig	*ij	*	*
1GG	Fi-	2g/	-lem
.	.	2.b-	Fi-
*col	*	*	*
2.D	.	.	.
.	.	4a	-li-
*Xlig	*	*	*
.	.	1a	-a
4D	-li-	.	.
*Xcol	*	*	*
=20-	=20-	=20-	=20-
2C	-a	.	.
2D/	Je-	2a	Je-
2GG	-ru-	2b-	-ru-
!LO:N:vis=1	!	!	!
2AA	-ſa-	2a	-ſa-
=21-	=21-	=21-	=21-
0D	-lem	2a	-lem
*	*Xij	*	*Xij
.	.	2r	.
.	.	2.d	i-
.	.	4d	-de-
=22-	=22-	=22-	=22-
0ryy	.	2e	-o
.	.	2f	di-
.	.	2d	-le-
.	.	2e	-xit
=23-	=23-	=23-	=23-
1ryy	.	2f	me
.	.	2g/	Rex
2.GG	i-	2.e	i-
!	!	!LO:SIC:v:t=custos f	!
4GG	-de-	4e	-de-
=24-	=24-	=24-	=24-
!	!	!LO:PB:g=original	!
2AA	-o	2f	-o
!	!	!LO:N:vis=1	!
*	*	*	*ij
2BB-	di-	2g	di-
!LO:LB:g=original	!	!	!
2GG	-le-	2e	-le-
2AA	-xit	2f	-xit
=25-	=25-	=25-	=25-
!	!	!LO:N:vis=2	!
2BB-	me	1g/	me
2.C	.	.	.
!	!	!LO:N:vis=2	!
.	.	1a	.
4BB-	.	.	.
2AA	.	.	.
=26-	=26-	=26-	=26-
1GG	Rex	1d	Rex
*	*	*	*Xij
!	!	!LO:N:vis=1	!
2r	.	0r	.
*	*ij	*	*
2.GG	i-	.	.
=27-	=27-	=27-	=27-
.	.	.	.
4GG	-de-	.	.
2AA	-o	.	.
2BB-	di-	2r	.
2GG	-le-	2g/	di-
=28-	=28-	=28-	=28-
1D	-xit	2g/	-le-
*	*	*	*
.	.	2f	-xit
*	*	*lig	*
1E-X	me	1g	me
=29-	=29-	=29-	=29-
1D	Rex	1a	.
*	*Xij	*Xlig	*
2r	.	1g	Rex
2G	di-	.	.
=30-	=30-	=30-	=30-
2G	-le-	1r	.
2F	-xit	.	.
1G	me	2r	.
*	*	*	*ij
.	.	2g/	di-
=31-	=31-	=31-	=31-
1D	Rex	2f	-le-
.	.	2f	-xit
1ryy	.	1g	me
=32-	=32-	=32-	=32-
2r	.	2d	Rex
*	*ij	*	*
2GG	di-	2d	di-
2AA	-le-	2f	-le-
2BB-	-xit	2g/	-xit
=33-	=33-	=33-	=33-
2C	me	1a	me
2D/	.	.	.
!LO:TX:t=P:problem:♭ above	!	!	!
!LO:N:vis=2	!	!	!
1E-X	Rex	1g	Rex
*	*Xij	*	*Xij
!LO:PB:g=original	!	!	!
=34-	=34-	=34-	=34-
1D	me	1f	in-
!	!	!LO:LB:g=original	!
1GG	Rex	1b-	-tro-
=35-	=35-	=35-	=35-
2r	.	2a	-du-
1D	et	2.b-	-xit
.	.	4a	.
1G	in-	2g/	.
=36-	=36-	=36-	=36-
.	.	1a	.
2F	-tro-	.	.
1G	-du-	1g	me
=37-	=37-	=37-	=37-
!	!	!LO:N:vis=1	!
!	!	!LO:TX:t=1	!
1E	-xit	00r	.
1D	me	.	.
=38-	=38-	=38-	=38-
2r	.	.	.
*	*ij	*	*
2GG	et	.	.
1.D	in-	.	.
=39-	=39-	=39-	=39-
.	.	2r	.
*	*	*	*ij
2C	-tro-	2e	in-
1D	-du-	1.a	.
=40-	=40-	=40-	=40-
1BB-	-xit	.	.
.	.	2g/	tro-
1AA	me	2.a	-du-
.	.	4g/	.
=41-	=41-	=41-	=41-
2r	.	2.f	.
2D/	et	.	.
.	.	8eL	.
.	.	8dJ	.
1.G	in-	2e	.
.	.	2e	-xit
=42-	=42-	=42-	=42-
.	.	1d	me
*	*	*	*Xij
2F	-tro-	.	.
1G	-du-	1r	.
=43-	=43-	=43-	=43-
1E	-xit	2r	.
.	.	2g/	in-
1D	me	2g/	-tro-
.	.	2f	.
=44-	=44-	=44-	=44-
2r	.	1b-	du-
2GG	et	.	.
1.D	in-	1a	-xit
=45-	=45-	=45-	=45-
.	.	2f	me
2C	-tro-	2e	in-
1D	-du-	2a	-tro-
!	!	!LO:LB:g=original	!
.	.	2a	-du-
=46-	=46-	=46-	=46-
1GG	-xit	2b-	.
.	.	2b-	-xit
!LO:LB:g=original	!	!	!
1AA	me	1a	-me
*	*Xij	*	*
=47-	=47-	=47-	=47-
0r	.	2r	.
.	.	1a	in
.	.	2g/	cu-
=48-	=48-	=48-	=48-
1.D	in	2f	-bi-
.	.	2e	-cu-
.	.	2.d	-l(um)
2C	cu-	.	.
.	.	4e	.
=49-	=49-	=49-	=49-
2BB-	-bi-	4f	.
.	.	4g/	.
2AA	-cu-	2a	.
1GG	-lu(m)	1d	ſu-
=50-	=50-	=50-	=50-
2.C	ſu-	2e	-(um)
*	*	*	*ij
.	.	1g	in
4BB-	.	.	.
1AA	.	.	.
.	.	2f	cu-
=51-	=51-	=51-	=51-
1GG	-um	2g/	-bi-
.	.	2g/	-cu-
1r	.	1d	-l(um)
=52-	=52-	=52-	=52-
2r	.	1e-X	su-
*	*ij	*	*
1G	in	.	.
.	.	1d	-(um)
*	*	*	*Xij
2F	cu-	.	.
=53-	=53-	=53-	=53-
!	!	!LO:N:vis=1	!
2G	-bi-	2r	.
2G	-cu-	2r	.
1D	-lum	1dd	in
=54-	=54-	=54-	=54-
1E-X	ſu-	2cc	Cu-
.	.	2.dd	-bi-
1D	-um	.	.
.	.	4cc	.
.	.	4b-	.
.	.	4a	.
=55-	=55-	=55-	=55-
!	!	!LO:LB:g=original	!
2r	.	1b-	.
1GG	in	.	.
.	.	2a	cu-
2AA	cu-	2f	-l(um)
=56-	=56-	=56-	=56-
2BB-	-bi-	1b-	Su-
2GG	-cu-	.	.
1D	-lum	0a	-(um)
=57-	=57-	=57-	=57-
1AA	ſu-	.	.
1D	-um	2a	in
.	.	1dd	cu-
!LO:LB:g=original	!	!	!
=58-	=58-	=58-	=58-
2r	.	.	.
*	*ij	*	*
1G	in	2cc	-bi-
.	.	2.dd	-cu-
2F	cu-	.	.
.	.	4cc	.
=59-	=59-	=59-	=59-
2G	-bi-	2b-	l(um)
*	*	*	*ij
2C	-cu-	2cc	in
1D	-lum	2a	cu-
.	.	2.b-	-bi-
=60-	=60-	=60-	=60-
1E-X	ſu-	.	.
.	.	4a	-cu-
.	.	1g	-l(um)
*	*	*	*Xij
1D	-um	.	.
*	*Xij	*	*
.	.	2f	Su-
=61-	=61-	=61-	=61-
1GG	in	2g/	-(um)
.	.	2b-	in
1D	cu-	2a	cu-
.	.	2.b-	-bi-
=62-	=62-	=62-	=62-
1.E	-bi-	.	.
.	.	4a	.
.	.	4g/	.
.	.	4f	.
.	.	2g/	cu
2E	-cu-	2f	l(um)
=63-	=63-	=63-	=63-
*	*	*	*ij
1D	-lum	1a	in
*lig	*	*	*
1GG	ſu-	2.b-	cu-
.	.	4cc	.
=64-	=64-	=64-	=64-
!	!	!LO:LB:g=original	!
1D	.	4dd	-bi-
.	.	4cc	.
.	.	4b-	-cu-
.	.	4a	-l(um)
*Xlig	*	*	*Xij
1%5GG;;	-um-	1g	ſu-
=65-	=65-	=65-	=65-
.	.	1.cc	.
.	.	4b-	.
.	.	4a	.
=66-	=66-	=66-	=66-
.	.	0bn;<	-um-
==	==	==	==
*-	*-	*-	*-
!!!system-decoration: [(s1,s2)]
!!!RDF**kern: > = above
!!!RDF**kern: < = below
!!!AIN: 1 empty 1 vox
!!!ENC: Kamil Watkowski
!!!END: 2021-07-11
